public/avatar/shoe/186.svg

<svg xmlns:xlink="http://www.w3.org/1999/xlink" height="38.3" width="36.05" xmlns="http://www.w3.org/2000/svg"><use height="22.85" transform="translate(14.4 10.8)" width="19.5" xlink:href="#a"/><defs><g id="a" fill-rule="evenodd"><path d="M-5.95.8q2.4.85 4.75 2.15Q-.2 3.5.8 4q.65.25.45-.4Q.6 1.55.55-.6q-.05-1.9-1.1-3l-.2-.05Q4.7-3.2 5.6 1.9l-.4.55q-2 .95-2.95 2.85-.2.2-.45 0-1.7-1.7-4-2.65-1.85-.9-3.7-1.2-.4-.1-.1-.45l.05-.2m3.75 4.9h-.05l-2.65.6q-.3.05 0 .1 2 1.3 4.8 1.45l.25-.25-.05-.55.55.65.15.15.15.4-.35.3q-4.1 1.5-6.75-1.15l-.2-.65q.45-1.5 1.45-2.35l.95.2q.85.5 1.75 1.1m5.75 2.6q.2-1 .65-1.7l.1.15q1.5.75 3.05-.35l.55-.5h.05l-.7 1.75q-.65.9-1.9 1.05-1.3.05-1.8-.4" fill="#b8cbcb" transform="translate(9.4 4.05)"/><path d="m-.75-3.65.2.05Q.5-2.5.55-.6q.05 2.15.7 4.2.2.65-.45.4-1-.5-2-1.05Q-3.55 1.65-5.95.8q1.6-3.45 5.15-4.45h.05M.1 7.05l.05.55-.25.25Q-2.9 7.7-4.9 6.4q-.3-.05 0-.1l2.65-.6h.05L0 7l.1.05" fill="#fff" transform="translate(9.4 4.05)"/><path d="M-.75-3.65H-.8q-3.55 1-5.15 4.45L-6 1q-.3.35.1.45 1.85.3 3.7 1.2 2.3.95 4 2.65.25.2.45 0Q3.2 3.4 5.2 2.45l.4-.55Q4.7-3.2-.75-3.65M-4.9 4.4q-1 .85-1.45 2.35l.2.65Q-3.5 10.05.6 8.55l.35-.3-.15-.4.45.5 1.05 1 .2.1-.8.15-.95.05-1.7.2q-2.2.25-3.7-.05l-1.05-.4q-2.65-1.25-1.95-5.25l2.75.25m5.9.5L-.1 3.8q-2.15-.85-4.25-1.6l-2-.1-.25.1-.6.05.25-.7q1.7-4.1 6.45-5.6 5.65.9 6.85 5.5l.15.95-.5.1q-1.6.65-2.4 1.7-1.25 1.35-1.15 3.45l-.5-1.1-.35-.85-.6-.8m6.5-.65.15-.05q.9 1.5.65 3.4l-.55 1.3-1.55.5-2.95.25L3 9.4l-.1-.05v-.3l.65-.75q.5.45 1.8.4 1.25-.15 1.9-1.05l.7-1.75-.15-1.1-.3-.55" fill="#3c4d4a" transform="translate(9.4 4.05)"/><path d="m-6.35 2.1 2.6 1.2q2.65.9 4.9 2v-.05L1 4.9l.6.8.35.85-.1 1.05Q-.05 5.1-3.3 4.45-5.65 4-7.45 3.15l-.15-.4-.05.3-.5-.3.1-.25.85-.25.6-.05.25-.1m-2.4 2.75v.45l-.15 1.45q-.65 2.45.65 3.55.75.6 1.95.85l2.9.25 8.45-.7.55-.15.6-.1-.2-.1.15-.05h1.2q0 .45.4.4l1.2-.25.1-.15-.25-.45V8.5l.15-3.85.25-1.8q.9 4 .25 8.25-.25 1.35-.9 1.2l-.15.1q-.65.5-1.6.55H-6.1q-.9-.05-1.55-.45-.6-.2-.95-1.1-.65-1.4-.5-3.1 0-1.85.35-3.45m5.35 12.6q1.2.7.3-.3l-.2.05q-.3.15-.1.25m-3-1.6q0-1 .45-1.7l12.6.5.25 1.2q0 .95-.5 1.6-.55.7-1.25.7h-9.8q-.8 0-1.3-.7-.45-.65-.45-1.6m.75-1.45q-1.2 1.7.35 3.3.25.3.4 0 .55-1.8-.75-3.3M6.8 2.3l.9-.1q2.4.55.05 1.1-3.7.9-4.65 4.6-.55-2 .3-3.3l-.2.75.65-.25q.8-.85 1.9-1.3 1.7-.85 1.05-1.5" fill="#a58343" transform="translate(9.4 4.05)"/><path d="M-2.2 5.7q-.9-.6-1.75-1.1l-.95-.2-2.75-.25q-.7 4 1.95 5.25l1.05.4q1.5.3 3.7.05l1.7-.2.95-.05.8-.15-.2-.1-1.05-1-.45-.5-.15-.15-.55-.65L0 7l-2.2-1.3m4.15.85.5 1.1q-.1-2.1 1.15-3.45l-.2.4q-.85 1.3-.3 3.3.95-3.7 4.65-4.6 2.35-.55-.05-1.1l-.9.1-.3.1-.15-.95q3.75 0 3.75 2.4v7.3q0 1.9-2.45 2.35v3q-.1 2.3-2.95 2.3H-4q-2.95 0-2.95-2.3v-3q-2.5-.4-2.45-2.35v-7.3q-.05-1.95 2.45-2.3l-.25.7-.85.25-.1.25.5.3.05-.3.15.4q1.8.85 4.15 1.3 3.25.65 5.15 3.15l.1-1.05m3.1 4.15h-.8q-3.9-.2-7.85-.05-2.9.1-4-1.5l.65.25-.7-.25L-7.8 9l-.3-.5-.15-1.1v-.35l-.05-.45v-.4l-.05-2.05v-1.4q-.4.85-.4 2.05v.05q-.35 1.6-.35 3.45-.15 1.7.5 3.1.35.9.95 1.1.65.4 1.55.45H6.8q.95-.05 1.6-.55l.15-.1q.65.15.9-1.2.65-4.25-.25-8.25l-.25 1.8-.2-1.15h-.1q-.3 2.65.1 5.05h.05v1.3l-.05-.05-.6-.45-.45.2q-.35.25-.35.75h-1.2l-.15.05-.4.2-.55.15M-6.4 15.85q0 .95.45 1.6.5.7 1.3.7h9.8q.7 0 1.25-.7.5-.65.5-1.6l-.25-1.2-12.6-.5q-.45.7-.45 1.7M7.5 4.25h-.2l-.5.2.1-.05q.55.1.85.4h.05-.05q-.3-.3-.85-.4l-.1.05.5-.2h.2l.3.55.15 1.1H7.9l-.55.5Q5.8 7.5 4.3 6.75l-.1-.15q-.45.7-.65 1.7l-.65.75v.3l.1.05.25.25L6.2 9.4l1.55-.5.55-1.3q.25-1.9-.65-3.4l-.15.05m-.7.2h-.2q-.8.35-1.45.85l-.45.45-.5.85.5-.85.45-.45q.65-.5 1.45-.85h.2" fill="#765425" transform="translate(9.4 4.05)"/><path d="m-6.35 2.1 2 .1q2.1.75 4.25 1.6L1 4.9l.15.35v.05q-2.25-1.1-4.9-2l-2.6-1.2M3.6 4.2Q4.4 3.15 6 2.5l.5-.1.3-.1q.65.65-1.05 1.5-1.1.45-1.9 1.3l-.65.25.2-.75.2-.4m1.45 6.5-8.45.7-2.9-.25q-1.2-.25-1.95-.85-1.3-1.1-.65-3.55l.15-1.45v-.5q0-1.2.4-2.05v1.4l.05 2.05v.4l.05.45v.35l.15 1.1.3.5.15.15.7.25-.65-.25q1.1 1.6 4 1.5 3.95-.15 7.85.05h.8m3.9-6.05L8.8 8.5v.05h-.05q-.4-2.4-.1-5.05h.1l.2 1.15m-.15 5.2.25.45-.1.15-1.2.25q-.4.05-.4-.4 0-.5.35-.75l.45-.2.6.45.05.05m-2.8.5.2.1-.6.1.4-.2m-9.4 7.1q-.2-.1.1-.25l.2-.05q.9 1-.3.3m-2.25-3.05q1.3 1.5.75 3.3-.15.3-.4 0-1.55-1.6-.35-3.3" fill="#e2d5ba" transform="translate(9.4 4.05)"/></g></defs></svg>

<?xml version="1.0" encoding="UTF-8" standalone="no"?>
<svg xmlns:xlink="http://www.w3.org/1999/xlink" height="38.3px" width="36.05px" xmlns="http://www.w3.org/2000/svg">
  <g transform="matrix(1.0, 0.0, 0.0, 1.0, 23.8, 14.85)">
    <use height="22.85" transform="matrix(1.0, 0.0, 0.0, 1.0, -9.4, -4.05)" width="19.5" xlink:href="#shape0"/>
  </g>
  <defs>
    <g id="shape0" transform="matrix(1.0, 0.0, 0.0, 1.0, 9.4, 4.05)">
      <path d="M-5.95 0.8 Q-3.55 1.65 -1.2 2.95 -0.2 3.5 0.8 4.0 1.45 4.25 1.25 3.6 0.6 1.55 0.55 -0.6 0.5 -2.5 -0.55 -3.6 L-0.75 -3.65 Q4.7 -3.2 5.6 1.9 L5.2 2.45 Q3.2 3.4 2.25 5.3 2.05 5.5 1.8 5.3 0.1 3.6 -2.2 2.65 -4.05 1.75 -5.9 1.45 -6.3 1.35 -6.0 1.0 L-5.95 0.8 M-2.2 5.7 L-2.25 5.7 -4.9 6.3 Q-5.2 6.35 -4.9 6.4 -2.9 7.7 -0.1 7.85 L0.15 7.6 0.1 7.05 0.65 7.7 0.8 7.85 0.95 8.25 0.6 8.55 Q-3.5 10.05 -6.15 7.4 L-6.35 6.75 Q-5.9 5.25 -4.9 4.4 L-3.95 4.6 Q-3.1 5.1 -2.2 5.7 M3.55 8.3 Q3.75 7.3 4.2 6.6 L4.3 6.75 Q5.8 7.5 7.35 6.4 L7.9 5.9 7.95 5.9 7.25 7.65 Q6.6 8.55 5.35 8.7 4.05 8.75 3.55 8.3" fill="#b8cbcb" fill-rule="evenodd" stroke="none"/>
      <path d="M-0.75 -3.65 L-0.55 -3.6 Q0.5 -2.5 0.55 -0.6 0.6 1.55 1.25 3.6 1.45 4.25 0.8 4.0 -0.2 3.5 -1.2 2.95 -3.55 1.65 -5.95 0.8 -4.35 -2.65 -0.8 -3.65 L-0.75 -3.65 M0.1 7.05 L0.15 7.6 -0.1 7.85 Q-2.9 7.7 -4.9 6.4 -5.2 6.35 -4.9 6.3 L-2.25 5.7 -2.2 5.7 0.0 7.0 0.1 7.05" fill="#ffffff" fill-rule="evenodd" stroke="none"/>
      <path d="M-0.75 -3.65 L-0.8 -3.65 Q-4.35 -2.65 -5.95 0.8 L-6.0 1.0 Q-6.3 1.35 -5.9 1.45 -4.05 1.75 -2.2 2.65 0.1 3.6 1.8 5.3 2.05 5.5 2.25 5.3 3.2 3.4 5.2 2.45 L5.6 1.9 Q4.7 -3.2 -0.75 -3.65 M-4.9 4.4 Q-5.9 5.25 -6.35 6.75 L-6.15 7.4 Q-3.5 10.05 0.6 8.55 L0.95 8.25 0.8 7.85 1.25 8.35 2.3 9.35 2.5 9.45 1.7 9.6 0.75 9.65 -0.95 9.85 Q-3.15 10.1 -4.65 9.8 L-5.7 9.4 Q-8.35 8.15 -7.65 4.15 L-4.9 4.4 M1.0 4.9 L-0.1 3.8 Q-2.25 2.95 -4.35 2.2 L-6.35 2.1 -6.6 2.2 -7.2 2.25 -6.95 1.55 Q-5.25 -2.55 -0.5 -4.05 5.15 -3.15 6.35 1.45 L6.5 2.4 6.0 2.5 Q4.4 3.15 3.6 4.2 2.35 5.55 2.45 7.65 L1.95 6.55 1.6 5.7 1.0 4.9 M7.5 4.25 L7.65 4.2 Q8.55 5.7 8.3 7.6 L7.75 8.9 6.2 9.4 3.25 9.65 3.0 9.4 2.9 9.35 2.9 9.05 3.55 8.3 Q4.05 8.75 5.35 8.7 6.6 8.55 7.25 7.65 L7.95 5.9 7.8 4.8 7.5 4.25" fill="#3c4d4a" fill-rule="evenodd" stroke="none"/>
      <path d="M-6.35 2.1 L-3.75 3.3 Q-1.1 4.2 1.15 5.3 L1.15 5.25 1.0 4.9 1.6 5.7 1.95 6.55 1.85 7.6 Q-0.05 5.1 -3.3 4.45 -5.65 4.0 -7.45 3.15 L-7.6 2.75 -7.65 3.05 -8.15 2.75 -8.05 2.5 -7.2 2.25 -6.6 2.2 -6.35 2.1 M-8.75 4.85 L-8.75 5.15 -8.75 5.3 -8.9 6.75 Q-9.55 9.2 -8.25 10.3 -7.5 10.9 -6.3 11.15 L-3.4 11.4 5.05 10.7 5.6 10.55 6.2 10.45 6.0 10.35 6.15 10.3 7.05 10.3 7.35 10.3 Q7.35 10.75 7.75 10.7 L8.95 10.45 9.05 10.3 8.8 9.85 8.8 9.35 8.8 8.55 8.8 8.5 8.95 4.65 9.2 2.85 Q10.1 6.85 9.45 11.1 9.2 12.45 8.55 12.3 L8.4 12.4 Q7.75 12.9 6.8 12.95 L-6.1 12.95 Q-7.0 12.9 -7.65 12.5 -8.25 12.3 -8.6 11.4 -9.25 10.0 -9.1 8.3 -9.1 6.45 -8.75 4.85 M-3.4 17.45 Q-2.2 18.15 -3.1 17.15 L-3.3 17.2 Q-3.6 17.35 -3.4 17.45 M-6.4 15.85 Q-6.4 14.85 -5.95 14.15 L6.65 14.65 6.9 15.85 Q6.9 16.8 6.4 17.45 5.85 18.15 5.15 18.15 L-4.65 18.15 Q-5.45 18.15 -5.95 17.45 -6.4 16.8 -6.4 15.85 M-5.65 14.4 Q-6.85 16.1 -5.3 17.7 -5.05 18.0 -4.9 17.7 -4.35 15.9 -5.65 14.4 M6.8 2.3 L7.7 2.2 Q10.1 2.75 7.75 3.3 4.05 4.2 3.1 7.9 2.55 5.9 3.4 4.6 L3.2 5.35 3.85 5.1 Q4.65 4.25 5.75 3.8 7.45 2.95 6.8 2.3" fill="#a58343" fill-rule="evenodd" stroke="none"/>
      <path d="M-2.2 5.7 Q-3.1 5.1 -3.95 4.6 L-4.9 4.4 -7.65 4.15 Q-8.35 8.15 -5.7 9.4 L-4.65 9.8 Q-3.15 10.1 -0.95 9.85 L0.75 9.65 1.7 9.6 2.5 9.45 2.3 9.35 1.25 8.35 0.8 7.85 0.65 7.7 0.1 7.05 0.0 7.0 -2.2 5.7 M1.95 6.55 L2.45 7.65 Q2.35 5.55 3.6 4.2 L3.4 4.6 Q2.55 5.9 3.1 7.9 4.05 4.2 7.75 3.3 10.1 2.75 7.7 2.2 L6.8 2.3 6.5 2.4 6.35 1.45 Q10.1 1.45 10.1 3.85 L10.1 11.15 Q10.1 13.05 7.65 13.5 L7.65 16.5 Q7.55 18.8 4.7 18.8 L-4.0 18.8 Q-6.95 18.8 -6.95 16.5 L-6.95 13.5 Q-9.45 13.1 -9.4 11.15 L-9.4 3.85 Q-9.45 1.9 -6.95 1.55 L-7.2 2.25 -8.05 2.5 -8.15 2.75 -7.65 3.05 -7.6 2.75 -7.45 3.15 Q-5.65 4.0 -3.3 4.45 -0.05 5.1 1.85 7.6 L1.95 6.55 M5.05 10.7 L4.25 10.7 Q0.35 10.5 -3.6 10.65 -6.5 10.75 -7.6 9.15 L-6.95 9.4 -7.65 9.15 -7.8 9.0 -8.1 8.5 -8.25 7.4 -8.25 7.05 -8.3 6.6 -8.3 6.4 -8.3 6.2 -8.35 4.15 -8.35 3.8 -8.35 3.6 -8.35 2.75 Q-8.75 3.6 -8.75 4.8 L-8.75 4.85 Q-9.1 6.45 -9.1 8.3 -9.25 10.0 -8.6 11.4 -8.25 12.3 -7.65 12.5 -7.0 12.9 -6.1 12.95 L6.8 12.95 Q7.75 12.9 8.4 12.4 L8.55 12.3 Q9.2 12.45 9.45 11.1 10.1 6.85 9.2 2.85 L8.95 4.65 8.75 3.5 8.65 3.5 Q8.35 6.15 8.75 8.55 L8.8 8.55 8.8 9.35 8.8 9.85 8.75 9.8 8.15 9.35 7.7 9.55 Q7.35 9.8 7.35 10.3 L7.05 10.3 6.15 10.3 6.0 10.35 5.6 10.55 5.05 10.7 M-6.4 15.85 Q-6.4 16.8 -5.95 17.45 -5.45 18.15 -4.65 18.15 L5.15 18.15 Q5.85 18.15 6.4 17.45 6.9 16.8 6.9 15.85 L6.65 14.65 -5.95 14.15 Q-6.4 14.85 -6.4 15.85 M7.5 4.25 L7.35 4.25 7.3 4.25 6.8 4.45 6.9 4.4 Q7.45 4.5 7.75 4.8 L7.8 4.8 7.75 4.8 Q7.45 4.5 6.9 4.4 L6.8 4.45 7.3 4.25 7.35 4.25 7.5 4.25 7.8 4.8 7.95 5.9 7.9 5.9 7.35 6.4 Q5.8 7.5 4.3 6.75 L4.2 6.6 Q3.75 7.3 3.55 8.3 L2.9 9.05 2.9 9.35 3.0 9.4 3.25 9.65 6.2 9.4 7.75 8.9 8.3 7.6 Q8.55 5.7 7.65 4.2 L7.5 4.25 M6.8 4.45 L6.6 4.45 Q5.8 4.8 5.15 5.3 L4.7 5.75 4.2 6.6 4.7 5.75 5.15 5.3 Q5.8 4.8 6.6 4.45 L6.8 4.45" fill="#765425" fill-rule="evenodd" stroke="none"/>
      <path d="M-6.35 2.1 L-4.35 2.2 Q-2.25 2.95 -0.1 3.8 L1.0 4.9 1.15 5.25 1.15 5.3 Q-1.1 4.2 -3.75 3.3 L-6.35 2.1 M3.6 4.2 Q4.4 3.15 6.0 2.5 L6.5 2.4 6.8 2.3 Q7.45 2.95 5.75 3.8 4.65 4.25 3.85 5.1 L3.2 5.35 3.4 4.6 3.6 4.2 M5.05 10.7 L-3.4 11.4 -6.3 11.15 Q-7.5 10.9 -8.25 10.3 -9.55 9.2 -8.9 6.75 L-8.75 5.3 -8.75 5.15 -8.75 4.85 -8.75 4.8 Q-8.75 3.6 -8.35 2.75 L-8.35 3.6 -8.35 3.8 -8.35 4.15 -8.3 6.2 -8.3 6.4 -8.3 6.6 -8.25 7.05 -8.25 7.4 -8.1 8.5 -7.8 9.0 -7.65 9.15 -6.95 9.4 -7.6 9.15 Q-6.5 10.75 -3.6 10.65 0.35 10.5 4.25 10.7 L5.05 10.7 M8.95 4.65 L8.8 8.5 8.8 8.55 8.75 8.55 Q8.35 6.15 8.65 3.5 L8.75 3.5 8.95 4.65 M8.8 9.85 L9.05 10.3 8.95 10.45 7.75 10.7 Q7.35 10.75 7.35 10.3 7.35 9.8 7.7 9.55 L8.15 9.35 8.75 9.8 8.8 9.85 M6.0 10.35 L6.2 10.45 5.6 10.55 6.0 10.35 M-3.4 17.45 Q-3.6 17.35 -3.3 17.2 L-3.1 17.15 Q-2.2 18.15 -3.4 17.45 M-5.65 14.4 Q-4.35 15.9 -4.9 17.7 -5.05 18.0 -5.3 17.7 -6.85 16.1 -5.65 14.4" fill="#e2d5ba" fill-rule="evenodd" stroke="none"/>
    </g>
  </defs>
</svg>
